dist/intermediate-svg/pencil.svg

<?xml version="1.0" encoding="utf-8"?><svg width="15" height="15" fill="none" xmlns="http://www.w3.org/2000/svg" viewBox="0 0 15 15"><path d="M14.8207 3.69008L13.5653 4.94544L11.0545 2.4347L12.3099 1.17934C12.549 0.94022 12.9077 0.94022 13.1468 1.17934L14.8207 2.85316C15.0598 3.09228 15.0598 3.45096 14.8207 3.69008ZM3.28321 10.206L5.79395 12.7168L12.7284 5.78236L10.2176 3.27162L3.28321 10.206ZM1.01159 14.6297C0.951807 14.8689 1.13115 15.0482 1.37026 14.9884L4.89726 13.4939L2.4463 11.043L1.01159 14.6297Z" fill="#fff"/><path d="M14.4623 3.30299L13.2069 4.55836L10.6961 2.04762L11.9515 0.792254C12.1906 0.553135 12.5493 0.553135 12.7884 0.792254L14.4623 2.46607C14.7014 2.70519 14.7014 3.06387 14.4623 3.30299ZM2.92481 9.81896L5.43555 12.3297L12.37 5.39528L9.85924 2.88454L2.92481 9.81896ZM0.653188 14.2427C0.593408 14.4818 0.772748 14.6611 1.01187 14.6013L4.53886 13.1068L2.0879 10.6559L0.653188 14.2427Z" fill="#1E6393"/></svg>

<?xml version="1.0" encoding="utf-8"?><svg width="15" height="15" fill="none" xmlns="http://www.w3.org/2000/svg" viewBox="0 0 15 15"><path d="M14.82 3.69l-1.255 1.255-2.51-2.51 1.255-1.256c.239-.239.598-.239.837 0l1.674 1.674c.239.24.239.598 0 .837zM3.284 10.206l2.511 2.51 6.934-6.934-2.51-2.51-6.935 6.934zM1.012 14.63c-.06.239.12.418.358.358l3.527-1.494-2.45-2.451-1.435 3.587z" fill="#fff"/><path d="M14.462 3.303l-1.255 1.255-2.51-2.51L11.951.792c.239-.239.597-.239.836 0l1.674 1.674c.24.24.24.598 0 .837zM2.925 9.819l2.51 2.51 6.935-6.934-2.51-2.51-6.935 6.934zM.653 14.243c-.06.239.12.418.359.358l3.527-1.494-2.451-2.451-1.435 3.587z" fill="#1E6393"/></svg>
